packages/kaspersky-hexa-ui-icons/src/iconsSVGs/28x20/FlagAu.svg

<svg width="28" height="20" viewBox="0 0 28 20" fill="none" xmlns="http://www.w3.org/2000/svg">
<g clip-path="url(#clip0_5138_343)">
<path d="M0 2C0 0.895431 0.895431 0 2 0H26C27.1046 0 28 0.895431 28 2V18C28 19.1046 27.1046 20 26 20H2C0.895431 20 0 19.1046 0 18V2Z" fill="white"/>
<mask id="mask0_5138_343" style="mask-type:luminance" maskUnits="userSpaceOnUse" x="0" y="0" width="28" height="20">
<path d="M0 2C0 0.895431 0.895431 0 2 0H26C27.1046 0 28 0.895431 28 2V18C28 19.1046 27.1046 20 26 20H2C0.895431 20 0 19.1046 0 18V2Z" fill="white"/>
</mask>
<g mask="url(#mask0_5138_343)">
<rect width="28" height="20" fill="#0A17A7"/>
<mask id="path-4-outside-1_5138_343" maskUnits="userSpaceOnUse" x="-2" y="-2" width="15" height="13" fill="black">
<rect fill="white" x="-2" y="-2" width="15" height="13"/>
<path fill-rule="evenodd" clip-rule="evenodd" d="M4.66667 4L0 0H0.666667L5.33333 3.33333H6.66667L12 0V0.495127C12 0.602778 11.948 0.703801 11.8604 0.766372L7.33333 4V5.33333L11.5475 8.94545C11.7029 9.07867 11.6087 9.33333 11.404 9.33333C11.358 9.33333 11.3132 9.31897 11.2758 9.29226L6.66667 6H5.33333L0 9.33333V8.66667L4.66667 5.33333V4Z"/>
</mask>
<path fill-rule="evenodd" clip-rule="evenodd" d="M4.66667 4L0 0H0.666667L5.33333 3.33333H6.66667L12 0V0.495127C12 0.602778 11.948 0.703801 11.8604 0.766372L7.33333 4V5.33333L11.5475 8.94545C11.7029 9.07867 11.6087 9.33333 11.404 9.33333C11.358 9.33333 11.3132 9.31897 11.2758 9.29226L6.66667 6H5.33333L0 9.33333V8.66667L4.66667 5.33333V4Z" fill="#FF2E3B"/>
<path fill-rule="evenodd" clip-rule="evenodd" d="M4.66667 4L0 0H0.666667L5.33333 3.33333H6.66667L12 0V0.495127C12 0.602778 11.948 0.703801 11.8604 0.766372L7.33333 4V5.33333L11.5475 8.94545C11.7029 9.07867 11.6087 9.33333 11.404 9.33333C11.358 9.33333 11.3132 9.31897 11.2758 9.29226L6.66667 6H5.33333L0 9.33333V8.66667L4.66667 5.33333V4Z" stroke="white" stroke-width="1.33333" mask="url(#path-4-outside-1_5138_343)"/>
<path fill-rule="evenodd" clip-rule="evenodd" d="M0 3.33333V6H4.66667V9.33333C4.66667 9.70152 4.96514 10 5.33333 10H6.66667C7.03486 10 7.33333 9.70152 7.33333 9.33333V6H12C12.3682 6 12.6667 5.70152 12.6667 5.33333V4C12.6667 3.63181 12.3682 3.33333 12 3.33333H7.33333V0H4.66667V3.33333H0Z" fill="url(#paint0_linear_5138_343)"/>
<path fill-rule="evenodd" clip-rule="evenodd" d="M0 4H5.33333V3.33333V0H6.66667V3.33333V4H12V5.33333H6.66667V6V9.33333H5.33333V6V5.33333H0V4Z" fill="url(#paint1_linear_5138_343)"/>
<path fill-rule="evenodd" clip-rule="evenodd" d="M6 16.3333L4.82443 16.9513L5.04894 15.6423L4.09789 14.7153L5.41221 14.5243L6 13.3333L6.58779 14.5243L7.90211 14.7153L6.95106 15.6423L7.17557 16.9513L6 16.3333Z" fill="white"/>
<path fill-rule="evenodd" clip-rule="evenodd" d="M20 17.3333L19.0572 17.6095L19.3333 16.6666L19.0572 15.7238L20 16L20.9428 15.7238L20.6667 16.6666L20.9428 17.6095L20 17.3333Z" fill="white"/>
<path fill-rule="evenodd" clip-rule="evenodd" d="M20 4.66669L19.0572 4.94283L19.3333 4.00002L19.0572 3.05721L20 3.33335L20.9428 3.05721L20.6667 4.00002L20.9428 4.94283L20 4.66669Z" fill="white"/>
<path fill-rule="evenodd" clip-rule="evenodd" d="M24 8.66669L23.0572 8.94283L23.3333 8.00002L23.0572 7.05721L24 7.33335L24.9428 7.05721L24.6667 8.00002L24.9428 8.94283L24 8.66669Z" fill="white"/>
<path fill-rule="evenodd" clip-rule="evenodd" d="M16 10L15.0572 10.2761L15.3333 9.33333L15.0572 8.39052L16 8.66667L16.9428 8.39052L16.6667 9.33333L16.9428 10.2761L16 10Z" fill="white"/>
<path fill-rule="evenodd" clip-rule="evenodd" d="M22 11.6667L21.5286 11.8048L21.6667 11.3334L21.5286 10.8619L22 11L22.4714 10.8619L22.3333 11.3334L22.4714 11.8048L22 11.6667Z" fill="white"/>
</g>
</g>
<defs>
<linearGradient id="paint0_linear_5138_343" x1="0" y1="0" x2="0" y2="10" gradientUnits="userSpaceOnUse">
<stop stop-color="white"/>
<stop offset="1" stop-color="#F0F0F0"/>
</linearGradient>
<linearGradient id="paint1_linear_5138_343" x1="0" y1="0" x2="0" y2="9.33333" gradientUnits="userSpaceOnUse">
<stop stop-color="#FF2E3B"/>
<stop offset="1" stop-color="#FC0D1B"/>
</linearGradient>
<clipPath id="clip0_5138_343">
<rect width="28" height="20" fill="white"/>
</clipPath>
</defs>
</svg>

<svg xmlns="http://www.w3.org/2000/svg" width="28" height="20" fill="none" viewBox="0 0 28 20"><g clip-path="url(#a)"><path fill="#fff" d="M0 2C0 .8954.8954 0 2 0h24c1.1046 0 2 .8954 2 2v16c0 1.1046-.8954 2-2 2H2c-1.1046 0-2-.8954-2-2z"/><mask id="b" width="28" height="20" x="0" y="0" maskUnits="userSpaceOnUse" style="mask-type:luminance"><path fill="#fff" d="M0 2C0 .8954.8954 0 2 0h24c1.1046 0 2 .8954 2 2v16c0 1.1046-.8954 2-2 2H2c-1.1046 0-2-.8954-2-2z"/></mask><g mask="url(#b)"><path fill="#0a17a7" d="M0 0h28v20H0z"/><mask id="c" width="15" height="13" x="-2" y="-2" fill="#000" maskUnits="userSpaceOnUse"><path fill="#fff" d="M-2-2h15v13H-2z"/><path fill-rule="evenodd" d="M4.6667 4 0 0h.6667l4.6666 3.3333h1.3334L12 0v.4951a.333.333 0 0 1-.1396.2713L7.3334 4v1.3333l4.2141 3.6121c.1554.1333.0612.388-.1435.388a.22.22 0 0 1-.1282-.0411L6.6667 6H5.3333L0 9.3333v-.6666l4.6667-3.3334z" clip-rule="evenodd"/></mask><path fill="#ff2e3b" fill-rule="evenodd" d="M4.6667 4 0 0h.6667l4.6666 3.3333h1.3334L12 0v.4951a.333.333 0 0 1-.1396.2713L7.3334 4v1.3333l4.2141 3.6121c.1554.1333.0612.388-.1435.388a.22.22 0 0 1-.1282-.0411L6.6667 6H5.3333L0 9.3333v-.6666l4.6667-3.3334z" clip-rule="evenodd"/><path stroke="#fff" d="M4.6667 4 0 0h.6667l4.6666 3.3333h1.3334L12 0v.4951a.333.333 0 0 1-.1396.2713L7.3334 4v1.3333l4.2141 3.6121c.1554.1333.0612.388-.1435.388a.22.22 0 0 1-.1282-.0411L6.6667 6H5.3333L0 9.3333v-.6666l4.6667-3.3334z" clip-rule="evenodd" mask="url(#c)"/><path fill="url(#d)" fill-rule="evenodd" d="M0 3.3333V6h4.6667v3.3333c0 .3682.2984.6667.6666.6667h1.3334a.6667.6667 0 0 0 .6666-.6667V6H12a.6667.6667 0 0 0 .6667-.6667V4A.6667.6667 0 0 0 12 3.3333H7.3333V0H4.6667v3.3333z" clip-rule="evenodd"/><path fill="url(#e)" fill-rule="evenodd" d="M0 4h5.3333V0h1.3334v4H12v1.3333H6.6667v4H5.3333v-4H0z" clip-rule="evenodd"/><path fill="#fff" fill-rule="evenodd" d="m6 16.333-1.176.618.225-1.309-.951-.927 1.314-.191L6 13.333l.588 1.191 1.314.191-.951.927.225 1.309zm14 1-.943.276.276-.943-.276-.943L20 16l.943-.276-.276.943.276.943zm0-12.666-.943.276.276-.943-.276-.943.943.276.943-.276-.276.943.276.943zm4 4-.943.276.276-.943-.276-.943.943.276.943-.276-.276.943.276.943zM16 10l-.943.276.276-.943-.276-.943.943.276.943-.276-.276.943.276.943zm6 1.667-.471.138.138-.471-.138-.471L22 11l.471-.138-.138.472.138.471z" clip-rule="evenodd"/></g></g><defs><linearGradient id="d" x1="0" x2="0" y1="0" y2="10" gradientUnits="userSpaceOnUse"><stop stop-color="#fff"/><stop offset="1" stop-color="#f0f0f0"/></linearGradient><linearGradient id="e" x1="0" x2="0" y1="0" y2="9" gradientUnits="userSpaceOnUse"><stop stop-color="#ff2e3b"/><stop offset="1" stop-color="#fc0d1b"/></linearGradient><clipPath id="a"><path fill="#fff" d="M0 0h28v20H0z"/></clipPath></defs></svg>
